lib/brands/icons/emmet.svg

<svg xmlns="http://www.w3.org/2000/svg" fill="none" aria-hidden="true" viewBox="0 0 48 48"><g id="emmet-Icon"><g id="Group"><path id="Vector" fill="#1C1C20" d="M24 42C33.9411 42 42 33.9411 42 24C42 14.0589 33.9411 6 24 6C14.0589 6 6 14.0589 6 24C6 33.9411 14.0589 42 24 42Z"/><path id="Vector_2" fill="#BAFFA9" d="M31.1884 23.5136L29.1838 21.509L30.2147 17.2706L25.9191 18.2442L23.9717 16.2969L33.594 13.8913L31.1884 23.5136Z"/><path id="Vector_3" fill="#7ACB16" d="M27.8668 36.8016L10.6841 19.6189L20.3064 17.2133L22.2538 19.1607L15.3807 20.8789L19.2754 24.7737L23.8002 23.6854L22.6547 28.1529L26.5494 32.0477L28.2677 25.1746L30.2724 27.1793L27.8668 36.8016Z"/></g></g></svg>

<svg xmlns="http://www.w3.org/2000/svg" fill="none" aria-hidden="true" viewBox="0 0 48 48"><path fill="#1C1C20" d="M24 42c9.941 0 18-8.059 18-18S33.941 6 24 6 6 14.059 6 24s8.059 18 18 18Z"/><path fill="#BAFFA9" d="m31.189 23.514-2.005-2.005 1.03-4.238-4.295.973-1.947-1.947 9.622-2.406-2.405 9.623Z"/><path fill="#7ACB16" d="M27.866 36.802 10.684 19.619l9.622-2.406 1.947 1.948-6.873 1.718 3.895 3.895 4.525-1.088-1.146 4.467 3.895 3.895 1.718-6.873 2.005 2.004-2.405 9.623Z"/></svg>
